images/minority-logo-lightblue.svg

<?xml version="1.0" encoding="utf-8"?><svg xmlns="http://www.w3.org/2000/svg" xmlns:xlink="http://www.w3.org/1999/xlink" version="1.1" class="page" pageAlignment="none" x="0px" y="0px" width="136px" height="90px" viewBox="0 0 136 90" enable-background="new 0 0 136 90" xml:space="preserve"><defs/><style type="text/css"/><style type="text/css"/><g type="LAYER" name="workspace" id="workspace" locked="true"/><g transform="matrix(1 0 0 1 -7.105427357601002e-15 -1.7763568394002505e-15)"><g id="#fafafaff"><path id="svg_1" width="136" height="90" stroke-miterlimit="3" stroke="none" fill="#faf9f9" d="M0,0 L136,0 L136,90 L0,90 L0,0 M18.790001,35.709999 C18.666226912928767,48.79947229551451 18.547493403693938,61.147757255936675 18.35,74.220001 C27.36,68.050003 35.74000100000001,60.99000099999999 44.150001,54.049999 C39.59,48.599998 33.999999,44.16 29.159999000000003,38.979999 C42.459998,48.54 54.900001,59.249999 68.04,69.029998 C81.199996,59.33000100000001 93.589995,48.61999800000001 106.79,38.970000000000006 C102.22,44.34999700000001 96.589995,48.689997000000005 91.889998,53.959998000000006 C100.370001,60.790000000000006 108.79,67.73000200000001 117.629996,74.099997 C117.690009,61.209998 117.80999600000001,48.31 117.58000100000001,35.419997 C109.31999900000001,29.040000000000003 101.249999,22.429999000000002 92.97000000000001,16.069999000000003 C84.41999700000001,22.249999000000003 76.60999900000002,29.399999 67.99999900000002,35.499999 C59.38999800000002,29.399999 51.58999900000002,22.249999000000003 43.01999900000001,16.079999 C34.97999800000001,22.649999 26.146437994722962,29.683377308707122 18.784960422163596,35.62005277044855 Z "/></g><g id="#77787c"/></g></svg>

<?xml version="1.0" encoding="UTF-8" ?>
<!DOCTYPE svg PUBLIC "-//W3C//DTD SVG 1.1//EN" "http://www.w3.org/Graphics/SVG/1.1/DTD/svg11.dtd">
<svg width="136" height="90" xmlns="http://www.w3.org/2000/svg">
 <g>
  <g id="#fafafaff">
   <path fill="#faf9f9" d="m0,0l136,0l0,90l-136,0l0,-90m18.790001,35.709999c-1.140001,12.73 -0.200001,25.690002 -0.440001,38.510002c9.01,-6.169998 17.390001,-13.23 25.800001,-20.170002c-4.560001,-5.450001 -10.150002,-9.889999 -14.990002,-15.07c13.299999,9.560001 25.740002,20.27 38.880001,30.049999c13.159996,-9.699997 25.549995,-20.41 38.75,-30.059998c-4.57,5.379997 -10.200005,9.719997 -14.900002,14.989998c8.480003,6.830002 16.900002,13.770004 25.739998,20.139999c0.060013,-12.889999 0.18,-25.789997 -0.049995,-38.68c-8.260002,-6.379997 -16.330002,-12.989998 -24.610001,-19.349998c-8.550003,6.18 -16.360001,13.33 -24.970001,19.43c-8.610001,-6.1 -16.41,-13.25 -24.98,-19.42c-8.040001,6.57 -16.73,12.48 -24.23,19.629999z" id="svg_1"/>
  </g>
  <g id="#77787c"/>
 </g>
</svg>
